application/web/upload/images/arrow-top.svg

<svg width="21" height="16" viewBox="0 0 21 16" fill="none" xmlns="http://www.w3.org/2000/svg">
<g id="Combined Shape Copy 6" filter="url(#filter0_d)">
<path fill-rule="evenodd" clip-rule="evenodd" d="M16.4119 6.79825C16.5378 6.96723 16.5288 7.21649 16.3849 7.37399C16.2315 7.542 15.9827 7.542 15.8293 7.37399L10.5 1.53863L5.17073 7.37399L5.14089 7.40353C4.98657 7.54135 4.75893 7.5315 4.61508 7.37399C4.46164 7.20598 4.46164 6.93359 4.61508 6.76558L10.2222 0.626006C10.2318 0.615506 10.2417 0.605662 10.252 0.596474C10.2623 0.587286 10.2729 0.578754 10.2838 0.570878C10.4363 0.460622 10.6436 0.478999 10.7778 0.626008L16.3849 6.76558L16.4119 6.79825Z" fill="black"/>
</g>
<defs>
<filter id="filter0_d" x="0.5" y="0.5" width="20" height="15" filterUnits="userSpaceOnUse" color-interpolation-filters="sRGB">
<feFlood flood-opacity="0" result="BackgroundImageFix"/>
<feColorMatrix in="SourceAlpha" type="matrix" values="0 0 0 0 0 0 0 0 0 0 0 0 0 0 0 0 0 0 127 0"/>
<feOffset dy="4"/>
<feGaussianBlur stdDeviation="2"/>
<feColorMatrix type="matrix" values="0 0 0 0 0 0 0 0 0 0 0 0 0 0 0 0 0 0 0.25 0"/>
<feBlend mode="normal" in2="BackgroundImageFix" result="effect1_dropShadow"/>
<feBlend mode="normal" in="SourceGraphic" in2="effect1_dropShadow" result="shape"/>
</filter>
</defs>
</svg>

<svg width="21" height="16" fill="none" xmlns="http://www.w3.org/2000/svg"><g id="Combined Shape Copy 6" filter="url(#filter0_d)"><path fill-rule="evenodd" clip-rule="evenodd" d="M16.412 6.798a.46.46 0 01-.027.576.37.37 0 01-.556 0L10.5 1.539 5.17 7.374l-.03.03a.368.368 0 01-.525-.03.46.46 0 010-.608l5.607-6.14a.412.412 0 01.062-.055.368.368 0 01.494.055l5.607 6.14.027.032z" fill="#000"/></g><defs><filter id="filter0_d" x=".5" y=".5" width="20" height="15" filterUnits="userSpaceOnUse" color-interpolation-filters="sRGB"><feFlood flood-opacity="0" result="BackgroundImageFix"/><feColorMatrix in="SourceAlpha" values="0 0 0 0 0 0 0 0 0 0 0 0 0 0 0 0 0 0 127 0"/><feOffset dy="4"/><feGaussianBlur stdDeviation="2"/><feColorMatrix values="0 0 0 0 0 0 0 0 0 0 0 0 0 0 0 0 0 0 0.25 0"/><feBlend in2="BackgroundImageFix" result="effect1_dropShadow"/><feBlend in="SourceGraphic" in2="effect1_dropShadow" result="shape"/></filter></defs></svg>
